Adwaita++-Dark/actions/22/mail-mark-junk.svg

<svg xmlns="http://www.w3.org/2000/svg" width="22" height="22" viewBox="0 0 22 22">
 <defs>
  <style id="current-color-scheme" type="text/css">
   .ColorScheme-Text { color:#E6DDFF; } .ColorScheme-Highlight { color:#4285f4; }
  </style>
 </defs>
 <path style="fill:currentColor" class="ColorScheme-Text" d="M 5.2207031 1 L 4.9082031 1.28125 L 1.2832031 4.90625 L 1.0019531 5.21875 L 1.0019531 10.78125 L 1.2832031 11.09375 L 4.9082031 14.71875 L 5.2207031 15 L 10.783203 15 L 11.095703 14.71875 L 14.720703 11.09375 L 15.001953 10.78125 L 15.001953 5.21875 L 14.720703 4.90625 L 11.095703 1.28125 L 10.783203 1 L 5.2207031 1 z M 7.0019531 4 L 9.0019531 4 L 9.0019531 7 L 8.7519531 9 L 7.2832031 9 L 7.0019531 7 L 7.0019531 4 z M 8.0019531 9.75 C 8.6923131 9.75 9.2519531 10.30964 9.2519531 11 C 9.2519531 11.69036 8.6923131 12.25 8.0019531 12.25 C 7.3115931 12.25 6.7519531 11.69036 6.7519531 11 C 6.7519531 10.30964 7.3115931 9.75 8.0019531 9.75 z" transform="translate(3 3)"/>
</svg>

<svg height="22" viewBox="0 0 22 22" width="22" xmlns="http://www.w3.org/2000/svg">
  <path d="m5.2207031 1-.3125.28125-3.625 3.625-.28125.3125v5.5625l.28125.3125 3.625 3.625.3125.28125h5.5624999l.3125-.28125 3.625-3.625.28125-.3125v-5.5625l-.28125-.3125-3.625-3.625-.3125-.28125zm1.78125 3h2v3l-.25 2h-1.46875l-.28125-2zm1 5.75c.69036 0 1.25.55964 1.25 1.25s-.55964 1.25-1.25 1.25-1.25-.55964-1.25-1.25.55964-1.25 1.25-1.25z" fill="#e6ddff" transform="translate(3 3)"/>
</svg>
